logo/marko.svg

<svg viewBox="0 0 256 214" xmlns="http://www.w3.org/2000/svg"><defs><linearGradient id="a" x1="49.91%" x2="49.91%" y1="99.908%" y2="-.091%"><stop offset="0%" stop-color="#8AC23E"/><stop offset="100%" stop-color="#8AC23E" stop-opacity="0"/></linearGradient><linearGradient id="b" x1="49.983%" x2="49.983%" y1=".063%" y2="100.062%"><stop offset="0%" stop-color="#698932"/><stop offset="100%" stop-color="#698932" stop-opacity="0"/></linearGradient><linearGradient id="c" x1="50.059%" x2="50.059%" y1=".063%" y2="100.062%"><stop offset="0%" stop-color="#FFED01"/><stop offset="100%" stop-color="#FFED01" stop-opacity="0"/></linearGradient><linearGradient id="d" x1="50.017%" x2="50.017%" y1=".063%" y2="100.092%"><stop offset="0%" stop-color="#E02A89"/><stop offset="100%" stop-color="#E02A89" stop-opacity="0"/></linearGradient><linearGradient id="e" x1="49.963%" x2="49.963%" y1="-.092%" y2="99.907%"><stop offset="0%" stop-color="#7F1E4F"/><stop offset="100%" stop-color="#7F1E4F" stop-opacity="0"/></linearGradient><linearGradient id="f" x1="49.965%" x2="49.965%" y1="-.092%" y2="99.907%"><stop offset="0%" stop-color="#E95506"/><stop offset="100%" stop-color="#E95506" stop-opacity="0"/></linearGradient><linearGradient id="g" x1="49.976%" x2="49.976%" y1="99.908%" y2="-.027%"><stop offset="0%" stop-color="#88D0F1"/><stop offset="100%" stop-color="#88D0F1" stop-opacity="0"/></linearGradient><linearGradient id="h" x1="50.02%" x2="50.02%" y1=".063%" y2="99.998%"><stop offset="0%" stop-color="#00828B"/><stop offset="83.25%" stop-color="#00828B" stop-opacity="0"/></linearGradient><linearGradient id="i" x1="50.078%" x2="50.078%" y1="99.975%" y2=".07%"><stop offset="0%" stop-color="#2073BA"/><stop offset="100%" stop-color="#2073BA" stop-opacity="0"/></linearGradient><linearGradient id="j" x1="50.017%" x2="50.017%" y1=".063%" y2="99.998%"><stop offset="0%" stop-color="#8ED0E1"/><stop offset="100%" stop-color="#88D0F1" stop-opacity="0"/></linearGradient></defs><path fill="#272525" d="M80.9 176c-1.2-1.6-2.8-2.9-4.8-3.8 -2-.9-4.6-1.4-7.8-1.4 -1.2 0-2.5.1-3.7.4 -1.2.3-2.4.6-3.5 1s-2.1.8-3 1.3c-.9.5-1.6.9-2.2 1.3 -1.2-1.2-2.7-2.2-4.5-2.9 -1.8-.7-4.1-1.1-6.9-1.1 -3.3 0-6.4.2-9.3.7 -2.9.5-5.3 1-7.1 1.5v39.3h9.4v-32.8c.6-.1 1.6-.2 2.8-.4 1.2-.2 2.4-.2 3.4-.2 2.9 0 4.9.9 5.9 2.8 1.1 1.9 1.6 5 1.6 9.2v21.4h9.4v-22.5c0-1.7-.1-3.2-.2-4.7 -.2-1.5-.4-2.8-.9-4.1 .7-.5 1.7-.9 3-1.4 1.3-.5 2.8-.7 4.3-.7 3 0 4.9.9 6 2.8 1 1.9 1.6 5 1.6 9.2v21.4H84v-22.8c0-2.7-.2-5.3-.7-7.6 -.4-2.3-1.2-4.3-2.4-5.9Zm36.5-.9c-1.3-1.4-3-2.5-5.1-3.3 -2.1-.8-4.6-1.1-7.7-1.2h-.2c-2.6 0-5 .2-7.3.6 -2.3.4-4 .8-5.2 1.2l1.2 7.6c1.1-.4 2.6-.8 4.4-1.1 1.8-.3 3.8-.5 6-.5h1.1c1.1.1 2.1.3 2.9.6 1.1.4 1.9 1 2.6 1.7 .6.8 1.1 1.6 1.4 2.6 .3 1 .4 2 .4 3.1v1.6c-1.3-.3-2.5-.5-3.7-.7 -1.1-.1-2.2-.2-3.3-.2h-.3c-2.1 0-4.2.2-6.1.7 -2 .4-3.8 1.2-5.4 2.2 -1.6 1-2.8 2.3-3.7 3.9 -.9 1.6-1.4 3.6-1.4 5.9 0 2.4.4 4.5 1.2 6.1 .8 1.7 1.9 3 3.3 4s3.1 1.8 5.2 2.3c2 .5 4.2.7 6.7.7h.2c3.6 0 6.8-.2 9.7-.7 2.9-.4 5.1-.8 6.6-1.1v-24.6c0-2.4-.3-4.6-.8-6.6 -.5-1.7-1.4-3.4-2.7-4.8Zm-5.5 30.2c-1.5.3-3.7.5-6.6.5h-.6c-2.1-.1-3.8-.5-5.1-1.3 -1.4-.9-2.1-2.4-2.1-4.6 0-1.1.3-2.1.8-2.8 .5-.8 1.2-1.3 2.1-1.7 .9-.4 1.8-.7 2.9-.9 .5-.1 1-.1 1.5-.2 .6 0 1.1-.1 1.7-.1 1.2 0 2.3.1 3.3.2 1 .2 1.7.3 2.3.5v10.4h-.2Zm36.5-34c-.8-.1-1.7-.2-2.5-.3 -.8-.1-1.6-.1-2.2-.1 -3.3 0-6.3.3-9.1.9 -2.7.6-5 1.2-6.8 1.9v38.7h9.4v-32.6c.5-.2 1.3-.3 2.4-.5 1.2-.2 2.3-.3 3.3-.3 1.8 0 3.4.1 4.8.4 1.4.3 2.4.6 3.2.8l1.6-7.9c-.5-.2-1.1-.3-1.9-.5 -.5-.3-1.3-.4-2.2-.5Zm34.3 29.1c-1.6-2.1-3.3-4-5-5.9 -1.7-1.8-3.3-3.4-4.9-4.7 2.9-3 5.8-6 8.6-9.1 2.9-3.1 5.6-6.1 8.2-9h-11.1c-.8 1-1.8 2.1-3 3.5 -1.2 1.3-2.4 2.7-3.7 4.1 -1.3 1.4-2.6 2.8-4 4.3 -1.3 1.4-2.6 2.8-3.8 4V152l-9.4 1.6v58.7h9.4v-18.6c1.4 1 2.8 2.3 4.3 3.8s2.9 3 4.3 4.7c1.4 1.7 2.7 3.4 3.9 5.1 1.2 1.8 2.3 3.4 3.2 5.1h10.9c-.9-1.8-2.1-3.7-3.5-5.8 -1.3-2.1-2.8-4.2-4.4-6.2Zm43.6-17.2c-1-2.6-2.3-4.9-4-6.7 -1.7-1.9-3.8-3.3-6.2-4.3 -2.4-1-5-1.5-7.9-1.5 -2.8 0-5.5.5-7.8 1.5 -2.4 1-4.4 2.4-6.2 4.3 -1.7 1.9-3.1 4.1-4 6.7 -1 2.6-1.4 5.5-1.4 8.7 0 3.2.5 6.1 1.4 8.8 1 2.6 2.3 4.9 4 6.8 1.7 1.9 3.8 3.3 6.1 4.4 2.4 1 5 1.6 7.9 1.6 2.9 0 5.6-.5 8-1.6 2.4-1 4.5-2.5 6.2-4.4 1.7-1.9 3-4.1 4-6.8 .9-2.6 1.4-5.6 1.4-8.8 0-3.2-.5-6.1-1.5-8.7Zm-10.8 18.5c-1.7 2.4-4.2 3.6-7.3 3.6 -3.1 0-5.5-1.2-7.3-3.6 -1.7-2.4-2.6-5.6-2.6-9.7 0-4 .9-7.2 2.6-9.6 1.7-2.4 4.2-3.5 7.3-3.5 3.1 0 5.5 1.2 7.3 3.5 1.7 2.4 2.6 5.6 2.6 9.6 0 4.1-.9 7.3-2.6 9.7Z"/><path fill="#8DC220" d="M128.1 0h36.1c-13.3 21.8-28 45.8-42.7 69.7H85.4c14.7-23.9 29.4-47.9 42.7-69.7Z"/><path fill="#44BFEF" d="M42.7 0h36.1c-7.1 11.6-14.3 23.3-21.4 34.9 -7.1 11.6-14.2 23.2-21.3 34.8 7.1 11.6 14.2 23.3 21.3 34.9 7.1 11.6 14.2 23.2 21.4 34.8H42.7c-7.1-11.6-14.3-23.2-21.4-34.8C14.2 93.1 7.1 81.4 0 69.8 7.1 58.2 14.2 46.6 21.3 35c7.1-11.7 14.3-23.3 21.4-35Z"/><path fill="#00AC71" d="M42.7 0v0c14.7 24 29.4 48 42.7 69.7h36.1C108.2 48 93.5 24 78.8 0v0H42.7Z"/><path fill="#F9BC00" d="M164.2 0h-36.1c7.1 11.6 14.2 23.3 21.4 34.9 7.1 11.6 14.2 23.2 21.4 34.8 -7.1 11.6-14.3 23.3-21.4 34.9 -7.1 11.6-14.2 23.2-21.4 34.8h36.1c7.1-11.6 14.2-23.2 21.4-34.8 7.1-11.6 14.2-23.2 21.4-34.9 -7.2-11.6-14.3-23.2-21.4-34.8 -7.1-11.6-14.3-23.2-21.4-34.9Z"/><path fill="url(#a)" d="M149.3 24.6h-36.1c-4.6 7.5-9.2 15.1-13.8 22.6 -4.6 7.5-9.2 15.1-13.9 22.6h36.1c4.6-7.5 9.3-15.1 13.9-22.6 4.5-7.6 9.1-15.1 13.8-22.6Z"/><path fill="url(#b)" d="M100.5 45.2h36.1c4.6-7.5 9.2-15.1 13.8-22.6 4.6-7.5 9.2-15.1 13.8-22.6h-36.1c-4.6 7.5-9.2 15.1-13.8 22.6 -4.6 7.6-9.2 15.1-13.8 22.6Z"/><path fill="url(#c)" d="M191.9 45.2h-36.1c-4.6-7.5-9.3-15.1-13.9-22.6 -4.6-7.5-9.2-15.1-13.8-22.6h36.1c4.6 7.5 9.2 15.1 13.8 22.6 4.7 7.6 9.3 15.1 13.9 22.6Z"/><path fill="#DF1B1C" d="M213.2 0h-36.1c7.1 11.7 14.2 23.3 21.3 34.9 7.1 11.6 14.3 23.2 21.4 34.8 -7.1 11.6-14.3 23.3-21.4 34.9 -7.1 11.6-14.2 23.2-21.4 34.8h36.1c7.1-11.6 14.2-23.2 21.4-34.8 7.1-11.6 14.2-23.2 21.4-34.9 -7.1-11.6-14.2-23.2-21.4-34.8 -7-11.6-14.2-23.2-21.3-34.9Z"/><path fill="url(#d)" d="M240.9 45.2h-36.1c-4.7-7.5-9.3-15.1-13.9-22.6 -4.6-7.5-9.2-15.1-13.8-22.6h36.1c4.6 7.5 9.2 15.1 13.8 22.6 4.6 7.6 9.3 15.1 13.9 22.6Z"/><path fill="url(#e)" d="M192.2 115h36.1c4.6-7.5 9.2-15 13.8-22.6 4.6-7.5 9.2-15.1 13.9-22.6h-36.2c-4.6 7.5-9.2 15.1-13.8 22.6 -4.6 7.5-9.2 15-13.8 22.6Z"/><path fill="url(#f)" d="M143.2 115h36.1c4.6-7.5 9.2-15.1 13.8-22.6 4.6-7.5 9.2-15.1 13.9-22.6h-36.1c-4.6 7.5-9.2 15.1-13.8 22.6 -4.7 7.5-9.3 15-13.9 22.6Z"/><path fill="url(#g)" d="M63.8 24.6H27.7c-4.6 7.5-9.2 15.1-13.8 22.6 -4.7 7.5-9.3 15.1-13.9 22.6h36.1c4.6-7.5 9.2-15 13.8-22.6 4.6-7.5 9.2-15.1 13.9-22.6Z"/><path fill="url(#h)" d="M15 45.2h36.1c4.6-7.5 9.2-15.1 13.8-22.6C69.6 15.1 74.2 7.5 78.8 0H42.7c-4.6 7.5-9.2 15-13.8 22.6 -4.6 7.5-9.2 15.1-13.9 22.6Z"/><path fill="url(#i)" d="M15 94.3h36.1c4.6 7.5 9.2 15.1 13.8 22.6 4.6 7.5 9.2 15.1 13.8 22.6H42.6c-4.6-7.5-9.3-15-13.9-22.6 -4.5-7.5-9.1-15-13.7-22.6Z"/><path fill="url(#j)" d="M106.5 45.2H70.4c-4.6-7.5-9.2-15.1-13.8-22.6C51.9 15.1 47.3 7.5 42.7 0h36.1c4.6 7.5 9.2 15 13.8 22.6 4.7 7.5 9.3 15.1 13.9 22.6Z"/></svg>

<?xml version="1.0" encoding="UTF-8"?>
<svg width="256px" height="214px" viewBox="0 0 256 214" version="1.1" xmlns="http://www.w3.org/2000/svg" xmlns:xlink="http://www.w3.org/1999/xlink" preserveAspectRatio="xMidYMid">
    <defs>
        <linearGradient x1="49.9109718%" y1="99.9084071%" x2="49.9109718%" y2="-0.0902654867%" id="linearGradient-1">
            <stop stop-color="#8AC23E" offset="0%"></stop>
            <stop stop-color="#8AC23E" stop-opacity="0" offset="100%"></stop>
        </linearGradient>
        <linearGradient x1="49.9835165%" y1="0.0637125664%" x2="49.9835165%" y2="100.062389%" id="linearGradient-2">
            <stop stop-color="#698932" offset="0%"></stop>
            <stop stop-color="#698932" stop-opacity="0" offset="100%"></stop>
        </linearGradient>
        <linearGradient x1="50.0595611%" y1="0.0637125664%" x2="50.0595611%" y2="100.062389%" id="linearGradient-3">
            <stop stop-color="#FFED01" offset="0%"></stop>
            <stop stop-color="#FFED01" stop-opacity="0" offset="100%"></stop>
        </linearGradient>
        <linearGradient x1="50.0170846%" y1="0.0637125664%" x2="50.0170846%" y2="100.092699%" id="linearGradient-4">
            <stop stop-color="#E02A89" offset="0%"></stop>
            <stop stop-color="#E02A89" stop-opacity="0" offset="100%"></stop>
        </linearGradient>
        <linearGradient x1="49.9631661%" y1="-0.0915929204%" x2="49.9631661%" y2="99.9070796%" id="linearGradient-5">
            <stop stop-color="#7F1E4F" offset="0%"></stop>
            <stop stop-color="#7F1E4F" stop-opacity="0" offset="100%"></stop>
        </linearGradient>
        <linearGradient x1="49.9652038%" y1="-0.0915929204%" x2="49.9652038%" y2="99.9070796%" id="linearGradient-6">
            <stop stop-color="#E95506" offset="0%"></stop>
            <stop stop-color="#E95506" stop-opacity="0" offset="100%"></stop>
        </linearGradient>
        <linearGradient x1="49.9766458%" y1="99.9084071%" x2="49.9766458%" y2="-0.0265486726%" id="linearGradient-7">
            <stop stop-color="#88D0F1" offset="0%"></stop>
            <stop stop-color="#88D0F1" stop-opacity="0" offset="100%"></stop>
        </linearGradient>
        <linearGradient x1="50.0205329%" y1="0.0637125664%" x2="50.0205329%" y2="99.9986726%" id="linearGradient-8">
            <stop stop-color="#00828B" offset="0%"></stop>
            <stop stop-color="#00828B" stop-opacity="0" offset="83.25%"></stop>
        </linearGradient>
        <linearGradient x1="50.078022%" y1="99.9752212%" x2="50.078022%" y2="0.0705752212%" id="linearGradient-9">
            <stop stop-color="#2073BA" offset="0%"></stop>
            <stop stop-color="#2073BA" stop-opacity="0" offset="100%"></stop>
        </linearGradient>
        <linearGradient x1="50.0177116%" y1="0.0637125664%" x2="50.0177116%" y2="99.9986726%" id="linearGradient-10">
            <stop stop-color="#8ED0E1" offset="0%"></stop>
            <stop stop-color="#88D0F1" stop-opacity="0" offset="100%"></stop>
        </linearGradient>
    </defs>
	<g>
		<path d="M80.9,176 C79.7,174.4 78.1,173.1 76.1,172.2 C74.1,171.3 71.5,170.8 68.3,170.8 C67.1,170.8 65.8,170.9 64.6,171.2 C63.4,171.5 62.2,171.8 61.1,172.2 C60,172.6 59,173 58.1,173.5 C57.2,174 56.5,174.4 55.9,174.8 C54.7,173.6 53.2,172.6 51.4,171.9 C49.6,171.2 47.3,170.8 44.5,170.8 C41.2,170.8 38.1,171 35.2,171.5 C32.3,172 29.9,172.5 28.1,173 L28.1,212.3 L37.5,212.3 L37.5,179.5 C38.1,179.4 39.1,179.3 40.3,179.1 C41.5,178.9 42.7,178.9 43.7,178.9 C46.6,178.9 48.6,179.8 49.6,181.7 C50.7,183.6 51.2,186.7 51.2,190.9 L51.2,212.3 L60.6,212.3 L60.6,189.8 C60.6,188.1 60.5,186.6 60.4,185.1 C60.2,183.6 60,182.3 59.5,181 C60.2,180.5 61.2,180.1 62.5,179.6 C63.8,179.1 65.3,178.9 66.8,178.9 C69.8,178.9 71.7,179.8 72.8,181.7 C73.8,183.6 74.4,186.7 74.4,190.9 L74.4,212.3 L84,212.3 L84,189.5 C84,186.8 83.8,184.2 83.3,181.9 C82.9,179.6 82.1,177.6 80.9,176 Z M117.4,175.1 C116.1,173.7 114.4,172.6 112.3,171.8 C110.2,171 107.7,170.7 104.6,170.6 L104.4,170.6 C101.8,170.6 99.4,170.8 97.1,171.2 C94.8,171.6 93.1,172 91.9,172.4 L93.1,180 C94.2,179.6 95.7,179.2 97.5,178.9 C99.3,178.6 101.3,178.4 103.5,178.4 L104.6,178.4 C105.7,178.5 106.7,178.7 107.5,179 C108.6,179.4 109.4,180 110.1,180.7 C110.7,181.5 111.2,182.3 111.5,183.3 C111.8,184.3 111.9,185.3 111.9,186.4 L111.9,188 C110.6,187.7 109.4,187.5 108.2,187.3 C107.1,187.2 106,187.1 104.9,187.1 L104.6,187.1 C102.5,187.1 100.4,187.3 98.5,187.8 C96.5,188.2 94.7,189 93.1,190 C91.5,191 90.3,192.3 89.4,193.9 C88.5,195.5 88,197.5 88,199.8 C88,202.2 88.4,204.3 89.2,205.9 C90,207.6 91.1,208.9 92.5,209.9 C93.9,210.9 95.6,211.7 97.7,212.2 C99.7,212.7 101.9,212.9 104.4,212.9 L104.6,212.9 C108.2,212.9 111.4,212.7 114.3,212.2 C117.2,211.8 119.4,211.4 120.9,211.1 L120.9,186.5 C120.9,184.1 120.6,181.9 120.1,179.9 C119.6,178.2 118.7,176.5 117.4,175.1 Z M111.9,205.3 C110.4,205.6 108.2,205.8 105.3,205.8 L104.7,205.8 C102.6,205.7 100.9,205.3 99.6,204.5 C98.2,203.6 97.5,202.1 97.5,199.9 C97.5,198.8 97.8,197.8 98.3,197.1 C98.8,196.3 99.5,195.8 100.4,195.4 C101.3,195 102.2,194.7 103.3,194.5 C103.8,194.4 104.3,194.4 104.8,194.3 C105.4,194.3 105.9,194.2 106.5,194.2 C107.7,194.2 108.8,194.3 109.8,194.4 C110.8,194.6 111.5,194.7 112.1,194.9 L112.1,205.3 L111.9,205.3 Z M148.4,171.3 C147.6,171.2 146.7,171.1 145.9,171 C145.1,170.9 144.3,170.9 143.7,170.9 C140.4,170.9 137.4,171.2 134.6,171.8 C131.9,172.4 129.6,173 127.8,173.7 L127.8,212.4 L137.2,212.4 L137.2,179.8 C137.7,179.6 138.5,179.5 139.6,179.3 C140.8,179.1 141.9,179 142.9,179 C144.7,179 146.3,179.1 147.7,179.4 C149.1,179.7 150.1,180 150.9,180.2 L152.5,172.3 C152,172.1 151.4,172 150.6,171.8 C150.1,171.5 149.3,171.4 148.4,171.3 Z M182.7,200.4 C181.1,198.3 179.4,196.4 177.7,194.5 C176,192.7 174.4,191.1 172.8,189.8 C175.7,186.8 178.6,183.8 181.4,180.7 C184.3,177.6 187,174.6 189.6,171.7 L178.5,171.7 C177.7,172.7 176.7,173.8 175.5,175.2 C174.3,176.5 173.1,177.9 171.8,179.3 C170.5,180.7 169.2,182.1 167.8,183.6 C166.5,185 165.2,186.4 164,187.6 L164,152 L154.6,153.6 L154.6,212.3 L164,212.3 L164,193.7 C165.4,194.7 166.8,196 168.3,197.5 C169.8,199 171.2,200.5 172.6,202.2 C174,203.9 175.3,205.6 176.5,207.3 C177.7,209.1 178.8,210.7 179.7,212.4 L190.6,212.4 C189.7,210.6 188.5,208.7 187.1,206.6 C185.8,204.5 184.3,202.4 182.7,200.4 Z M226.3,183.2 C225.3,180.6 224,178.3 222.3,176.5 C220.6,174.6 218.5,173.2 216.1,172.2 C213.7,171.2 211.1,170.7 208.2,170.7 C205.4,170.7 202.7,171.2 200.4,172.2 C198,173.2 196,174.6 194.2,176.5 C192.5,178.4 191.1,180.6 190.2,183.2 C189.2,185.8 188.8,188.7 188.8,191.9 C188.8,195.1 189.3,198 190.2,200.7 C191.2,203.3 192.5,205.6 194.2,207.5 C195.9,209.4 198,210.8 200.3,211.9 C202.7,212.9 205.3,213.5 208.2,213.5 C211.1,213.5 213.8,213 216.2,211.9 C218.6,210.9 220.7,209.4 222.4,207.5 C224.1,205.6 225.4,203.4 226.4,200.7 C227.3,198.1 227.8,195.1 227.8,191.9 C227.8,188.7 227.3,185.8 226.3,183.2 Z M215.5,201.7 C213.8,204.1 211.3,205.3 208.2,205.3 C205.1,205.3 202.7,204.1 200.9,201.7 C199.2,199.3 198.3,196.1 198.3,192 C198.3,188 199.2,184.8 200.9,182.4 C202.6,180 205.1,178.9 208.2,178.9 C211.3,178.9 213.7,180.1 215.5,182.4 C217.2,184.8 218.1,188 218.1,192 C218.1,196.1 217.2,199.3 215.5,201.7 Z" fill="#272525"></path>
		<path d="M128.1,0 L164.2,0 C150.9,21.8 136.2,45.8 121.5,69.7 L85.4,69.7 C100.1,45.8 114.8,21.8 128.1,0 Z" fill="#8DC220"></path>
		<path d="M42.7,0 L78.8,0 C71.7,11.6 64.5,23.3 57.4,34.9 C50.3,46.5 43.2,58.1 36.1,69.7 C43.2,81.3 50.3,93 57.4,104.6 C64.5,116.2 71.6,127.8 78.8,139.4 L42.7,139.4 C35.6,127.8 28.4,116.2 21.3,104.6 C14.2,93.1 7.1,81.4 0,69.8 C7.1,58.2 14.2,46.6 21.3,35 C28.4,23.3 35.6,11.7 42.7,0 Z" fill="#44BFEF"></path>
		<path d="M42.7,0 L42.7,0 C57.4,24 72.1,48 85.4,69.7 L121.5,69.7 C108.2,48 93.5,24 78.8,0 L78.8,0 L42.7,0 Z" fill="#00AC71"></path>
		<path d="M164.2,0 L128.1,0 C135.2,11.6 142.3,23.3 149.5,34.9 C156.6,46.5 163.7,58.1 170.9,69.7 C163.8,81.3 156.6,93 149.5,104.6 C142.4,116.2 135.3,127.8 128.1,139.4 L164.2,139.4 C171.3,127.8 178.4,116.2 185.6,104.6 C192.7,93 199.8,81.4 207,69.7 C199.8,58.1 192.7,46.5 185.6,34.9 C178.5,23.3 171.3,11.7 164.2,0 Z" fill="#F9BC00"></path>
		<path d="M149.3,24.6 L113.2,24.6 C108.6,32.1 104,39.7 99.4,47.2 C94.8,54.7 90.2,62.3 85.5,69.8 L121.6,69.8 C126.2,62.3 130.9,54.7 135.5,47.2 C140,39.6 144.6,32.1 149.3,24.6 Z" fill="url(#linearGradient-1)"></path>
		<path d="M100.5,45.2 L136.6,45.2 C141.2,37.7 145.8,30.1 150.4,22.6 C155,15.1 159.6,7.5 164.2,0 L128.1,0 C123.5,7.5 118.9,15.1 114.3,22.6 C109.7,30.2 105.1,37.7 100.5,45.2 Z" fill="url(#linearGradient-2)"></path>
		<path d="M191.9,45.2 L155.8,45.2 C151.2,37.7 146.5,30.1 141.9,22.6 C137.3,15.1 132.7,7.5 128.1,0 L164.2,0 C168.8,7.5 173.4,15.1 178,22.6 C182.7,30.2 187.3,37.7 191.9,45.2 Z" fill="url(#linearGradient-3)"></path>
		<path d="M213.2,0 L177.1,0 C184.2,11.7 191.3,23.3 198.4,34.9 C205.5,46.5 212.7,58.1 219.8,69.7 C212.7,81.3 205.5,93 198.4,104.6 C191.3,116.2 184.2,127.8 177,139.4 L213.1,139.4 C220.2,127.8 227.3,116.2 234.5,104.6 C241.6,93 248.7,81.4 255.9,69.7 C248.8,58.1 241.7,46.5 234.5,34.9 C227.5,23.3 220.3,11.7 213.2,0 Z" fill="#DF1B1C"></path>
		<path d="M240.9,45.2 L204.8,45.2 C200.1,37.7 195.5,30.1 190.9,22.6 C186.3,15.1 181.7,7.5 177.1,0 L213.2,0 C217.8,7.5 222.4,15.1 227,22.6 C231.6,30.2 236.3,37.7 240.9,45.2 Z" fill="url(#linearGradient-4)"></path>
		<path d="M192.2,115 L228.3,115 C232.9,107.5 237.5,100 242.1,92.4 C246.7,84.9 251.3,77.3 256,69.8 L219.8,69.8 C215.2,77.3 210.6,84.9 206,92.4 C201.4,99.9 196.8,107.4 192.2,115 Z" fill="url(#linearGradient-5)"></path>
		<path d="M143.2,115 L179.3,115 C183.9,107.5 188.5,99.9 193.1,92.4 C197.7,84.9 202.3,77.3 207,69.8 L170.9,69.8 C166.3,77.3 161.7,84.9 157.1,92.4 C152.4,99.9 147.8,107.4 143.2,115 Z" fill="url(#linearGradient-6)"></path>
		<path d="M63.8,24.6 L27.7,24.6 C23.1,32.1 18.5,39.7 13.9,47.2 C9.2,54.7 4.6,62.3 0,69.8 L36.1,69.8 C40.7,62.3 45.3,54.8 49.9,47.2 C54.5,39.7 59.1,32.1 63.8,24.6 Z" fill="url(#linearGradient-7)"></path>
		<path d="M15,45.2 L51.1,45.2 C55.7,37.7 60.3,30.1 64.9,22.6 C69.6,15.1 74.2,7.5 78.8,0 L42.7,0 C38.1,7.5 33.5,15 28.9,22.6 C24.3,30.1 19.7,37.7 15,45.2 Z" fill="url(#linearGradient-8)"></path>
		<path d="M15,94.3 L51.1,94.3 C55.7,101.8 60.3,109.4 64.9,116.9 C69.5,124.4 74.1,132 78.7,139.5 L42.6,139.5 C38,132 33.3,124.5 28.7,116.9 C24.2,109.4 19.6,101.9 15,94.3 Z" fill="url(#linearGradient-9)"></path>
		<path d="M106.5,45.2 L70.4,45.2 C65.8,37.7 61.2,30.1 56.6,22.6 C51.9,15.1 47.3,7.5 42.7,0 L78.8,0 C83.4,7.5 88,15 92.6,22.6 C97.3,30.1 101.9,37.7 106.5,45.2 Z" fill="url(#linearGradient-10)"></path>
	</g>
</svg>
